StripePaymentsUI/StripePaymentsUI/Resources/StripePaymentsUI.xcassets/Cards/stp_card_jcb.imageset/icon-card-jcb.svg

<svg fill="none" height="17" viewBox="0 0 26 17" width="26" xmlns="http://www.w3.org/2000/svg"><path d="m0 17h4.8c1.092 0 2.4-1.1947 2.4-2.1333v-13.8667h-4.8c-1.092 0-2.4 1.19467-2.4 3.2z" fill="#047ab1"/><path d="m2.724 11.816c-.9215.0002-1.83846-.1147-2.724-.3413v-1.1733c.687181.3777 1.47266.5908 2.28.6186.924 0 1.44-.576 1.44-1.36529v-3.22134h2.28v3.22134c0 1.25869-.744 2.26129-3.276 2.26129z" fill="#fff"/><path d="m8.4 17h4.8c1.092 0 2.4-1.1947 2.4-2.1333v-13.8667h-4.8c-1.092 0-2.4 1.19467-2.4 3.2z" fill="#d42d06"/><path d="m8.4 7.07999c.696-.59733 1.896-.97066 3.84-.88533 1.056.04267 2.16.32 2.16.32v1.184c-.6314-.33948-1.3412-.54735-2.076-.608-1.476-.11733-2.376.61867-2.376 1.90933 0 1.29071.9 2.02671 2.376 1.92001.7352-.0661 1.4445-.2775 2.076-.6187v1.1734s-1.104.288-2.16.3306c-1.944.0854-3.144-.288-3.84-.8853z" fill="#fff"/><path d="m16.8 17h4.8c1.092 0 2.4-1.1947 2.4-2.1333v-13.8667h-4.8c-1.092 0-2.4 1.19467-2.4 3.2z" fill="#67b637"/><path d="m22.8 10.28c0 .8534-.744 1.3867-1.74 1.3867h-4.26v-5.33333h3.876l.276.01067c.876.04267 1.524.50133 1.524 1.29067 0 .61866-.444 1.152-1.248 1.28v.032c.888.05333 1.572.55466 1.572 1.33329zm-3.06-3.10396c-.0516-.00687-.1038-.01043-.156-.01067h-1.44v1.344h1.596c.3-.064.552-.30933.552-.672 0-.36266-.252-.608-.552-.66133zm.18 2.176c-.0635-.00886-.1278-.01243-.192-.01067h-1.584v1.46133h1.584l.192-.0213c.3-.064.552-.3414.552-.7147 0-.37333-.24-.63999-.552-.71466z" fill="#fff"/></svg>

<svg width="26" height="17" viewBox="0 0 26 17" fill="none" xmlns="http://www.w3.org/2000/svg">
<path d="M0 17H4.8C5.892 17 7.2 15.8053 7.2 14.8667V1H2.4C1.308 1 0 2.19467 0 4.2V17Z" fill="#047AB1"/>
<path d="M2.724 11.816C1.8025 11.8162 0.88554 11.7013 0 11.4747V10.3014C0.687181 10.6791 1.47266 10.8922 2.28 10.92C3.204 10.92 3.72 10.344 3.72 9.55471V6.33337H6V9.55471C6 10.8134 5.256 11.816 2.724 11.816Z" fill="white"/>
<path d="M8.4 17H13.2C14.292 17 15.6 15.8053 15.6 14.8667V1H10.8C9.708 1 8.4 2.19467 8.4 4.2V17Z" fill="#D42D06"/>
<path d="M8.4 7.07999C9.096 6.48266 10.296 6.10933 12.24 6.19466C13.296 6.23733 14.4 6.51466 14.4 6.51466V7.69866C13.7686 7.35918 13.0588 7.15131 12.324 7.09066C10.848 6.97333 9.948 7.70933 9.948 8.99999C9.948 10.2907 10.848 11.0267 12.324 10.92C13.0592 10.8539 13.7685 10.6425 14.4 10.3013V11.4747C14.4 11.4747 13.296 11.7627 12.24 11.8053C10.296 11.8907 9.096 11.5173 8.4 10.92V7.07999Z" fill="white"/>
<path d="M16.8 17H21.6C22.692 17 24 15.8053 24 14.8667V1H19.2C18.108 1 16.8 2.19467 16.8 4.2V17Z" fill="#67B637"/>
<path d="M22.8 10.28C22.8 11.1334 22.056 11.6667 21.06 11.6667H16.8V6.33337H20.676L20.952 6.34404C21.828 6.38671 22.476 6.84537 22.476 7.63471C22.476 8.25337 22.032 8.78671 21.228 8.91471V8.94671C22.116 9.00004 22.8 9.50137 22.8 10.28ZM19.74 7.17604C19.6884 7.16917 19.6362 7.16561 19.584 7.16537H18.144V8.50937H19.74C20.04 8.44537 20.292 8.20004 20.292 7.83737C20.292 7.47471 20.04 7.22937 19.74 7.17604ZM19.92 9.35204C19.8565 9.34318 19.7922 9.33961 19.728 9.34137H18.144V10.8027H19.728L19.92 10.7814C20.22 10.7174 20.472 10.44 20.472 10.0667C20.472 9.69337 20.232 9.42671 19.92 9.35204Z" fill="white"/>
</svg>
